flags/sh-hl.svg

<svg width="512" height="512" viewBox="0 0 512 512" fill="none" xmlns="http://www.w3.org/2000/svg">
<rect width="512" height="512" fill="var(--flag-palette-navy, #002266)"/>
<rect width="256" height="256" fill="var(--flag-palette-navy, #002266)"/>
<path d="M232 256H256V232L152 128L256 24V0H232L128 104L24 0H0V24L104 128L0 232V256H24L128 152L232 256Z" fill="var(--flag-palette-white, #eeeeee)"/>
<path d="M256 160V96H160V0H96V96H0V160H96V256H160V160H256Z" fill="var(--flag-palette-white, #eeeeee)"/>
<path d="M256 144V112H144V0H112V112H0V144H112V256H144V144H256Z" fill="var(--flag-palette-bright-red, #d80027)"/>
<path d="M0 16V0L96 96H80L0 16Z" fill="var(--flag-palette-bright-red, #d80027)"/>
<path d="M256 240L256 256L160 160L176 160L256 240Z" fill="var(--flag-palette-bright-red, #d80027)"/>
<path d="M16 256L0 256L96 160L96 176L16 256Z" fill="var(--flag-palette-bright-red, #d80027)"/>
<path d="M240 -6.99382e-07L256 0L160 96L160 80L240 -6.99382e-07Z" fill="var(--flag-palette-bright-red, #d80027)"/>
<path d="M304 152H464V232L384 264L304 232V152Z" fill="var(--flag-palette-white, #eeeeee)"/>
<path d="M384 164C380.287 164 376.726 165.475 374.1 168.101C371.475 170.726 370 174.287 370 178H328C328 181.713 329.475 185.274 332.1 187.899C334.726 190.525 338.287 192 342 192C342 195.713 343.475 199.274 346.1 201.899C348.726 204.525 352.287 206 356 206C356 209.713 357.475 213.274 360.1 215.899C362.726 218.525 366.287 220 370 220H398C401.713 220 405.274 218.525 407.9 215.899C410.525 213.274 412 209.713 412 206C415.713 206 419.274 204.525 421.9 201.899C424.525 199.274 426 195.713 426 192C429.713 192 433.274 190.525 435.9 187.899C438.525 185.274 440 181.713 440 178H398C398 174.287 396.525 170.726 393.9 168.101C391.274 165.475 387.713 164 384 164Z" fill="var(--flag-palette-black, #333333)"/>
<path d="M304 232V280C304 341 384 360 384 360C384 360 464 341 464 280V232H304Z" fill="var(--flag-palette-light-blue, #338af3)"/>
<path d="M388 245C379 245 373 253 363 246C368 258 377 255 385 256V262H371C371 262 357 282 371 300H385V305H371C362 305 362 294 362 294H328V305H335C344 313 348 331 362 331H414C429 331 431 322 434 314C437 307 439 306 440 305V297H411C411 297 411 305 403 305H391V299H405C394 282 405 262 405 262H391V246L387 245H388ZM365 262C345 268 334 288 334 288H359C357 271 365 262 365 262ZM409 268C405.671 275.199 404.964 283.335 407 291H431C426 279 431 268 431 268H409Z" fill="var(--flag-palette-white, #eeeeee)"/>
</svg>

<svg xmlns="http://www.w3.org/2000/svg" width="512" height="512" fill="none"><path fill="var(--flag-palette-navy, #002266)" d="M0 0h512v512H0z"/><path fill="var(--flag-palette-navy, #002266)" d="M0 0h256v256H0z"/><path fill="var(--flag-palette-white, #eeeeee)" d="M232 256h24v-24L152 128 256 24V0h-24L128 104 24 0H0v24l104 104L0 232v24h24l104-104z"/><path fill="var(--flag-palette-white, #eeeeee)" d="M256 160V96h-96V0H96v96H0v64h96v96h64v-96z"/><path fill="var(--flag-palette-bright-red, #d80027)" d="M256 144v-32H144V0h-32v112H0v32h112v112h32V144z"/><path fill="var(--flag-palette-bright-red, #d80027)" d="M0 16V0l96 96H80zm256 224v16l-96-96h16zM16 256H0l96-96v16zM240 0h16l-96 96V80z"/><path fill="var(--flag-palette-white, #eeeeee)" d="M304 152h160v80l-80 32-80-32z"/><path fill="var(--flag-palette-black, #333333)" d="M384 164a14 14 0 0 0-14 14h-42a14 14 0 0 0 14 14 14 14 0 0 0 14 14 14 14 0 0 0 14 14h28a14 14 0 0 0 14-14 14 14 0 0 0 14-14 14 14 0 0 0 14-14h-42a14 14 0 0 0-14-14"/><path fill="var(--flag-palette-light-blue, #338af3)" d="M304 232v48c0 61 80 80 80 80s80-19 80-80v-48z"/><path fill="var(--flag-palette-white, #eeeeee)" d="M388 245c-9 0-15 8-25 1 5 12 14 9 22 10v6h-14s-14 20 0 38h14v5h-14c-9 0-9-11-9-11h-34v11h7c9 8 13 26 27 26h52c15 0 17-9 20-17 3-7 5-8 6-9v-8h-29s0 8-8 8h-12v-6h14c-11-17 0-37 0-37h-14v-16l-4-1zm-23 17c-20 6-31 26-31 26h25c-2-17 6-26 6-26m44 6a34 34 0 0 0-2 23h24c-5-12 0-23 0-23z"/></svg>
